inst/assets/svg/wi-na.svg

<?xml version="1.0" encoding="UTF-8"?>
<svg xmlns="http://www.w3.org/2000/svg" xmlns:xlink="http://www.w3.org/1999/xlink" width="30pt" height="30pt" viewBox="0 0 30 30" version="1.1">
<g id="surface596">
<path style=" stroke:none;fill-rule:nonzero;fill:rgb(0%,0%,0%);fill-opacity:1;" d="M 6.871094 18.230469 L 8.808594 18.230469 L 8.808594 14.589844 L 8.828125 14.589844 L 10.878906 18.230469 L 12.871094 18.230469 L 12.871094 11.570313 L 10.929688 11.570313 L 10.929688 15.121094 L 10.910156 15.121094 L 8.96875 11.570313 L 6.871094 11.570313 Z M 13.390625 18.378906 L 14.820313 18.378906 L 17.429688 11.410156 L 16.011719 11.410156 Z M 16.261719 18.230469 L 18.328125 18.230469 L 18.621094 17.28125 L 20.738281 17.28125 L 21.019531 18.230469 L 23.148438 18.230469 L 20.71875 11.570313 L 18.710938 11.570313 Z M 19.070313 15.839844 L 19.710938 13.800781 L 19.738281 13.800781 L 20.339844 15.839844 Z M 19.070313 15.839844 "/>
</g>
</svg>

<?xml version="1.0" encoding="utf-8"?>
<!-- Generator: Adobe Illustrator 22.0.1, SVG Export Plug-In . SVG Version: 6.00 Build 0)  -->
<svg version="1.1" id="Layer_1" xmlns="http://www.w3.org/2000/svg" xmlns:xlink="http://www.w3.org/1999/xlink" x="0px" y="0px"
	 viewBox="0 0 30 30" style="enable-background:new 0 0 30 30;" xml:space="preserve">
<path d="M6.87,18.23h1.94v-3.64h0.02l2.05,3.64h1.99v-6.66h-1.94v3.55h-0.02l-1.94-3.55h-2.1V18.23z M13.39,18.38h1.43l2.61-6.97
	h-1.42L13.39,18.38z M16.26,18.23h2.07l0.29-0.95h2.12l0.28,0.95h2.13l-2.43-6.66h-2.01L16.26,18.23z M19.07,15.84l0.64-2.04h0.03
	l0.6,2.04H19.07z"/>
</svg>
